X:1
T:Bourree "Les feuilles jaunes" ("Die gelben Blaetter")
C:Ambros Schiffermueller, 13. 4. 2001
R:bourree a trois temps
F:http://simonwascher.info
Z:abc transcription Helmut Eberl
M:3/8
L:1/8
K:Cm
g |\
g2 f | e> d c | d G G | c/=B/c/d/e/f/ |\
g2 f | e> d c | d G G | c2 :|  
|: c |\
d> e f | e> d c | d G G | c/=B/c/d/e/c/ |\
d> e f | e> d c | d G G | c2 :|
